X: 13973
T: Francie Campbell's
R: polka
M: 2/4
K: Gmajor
|:Bd A B/A/|GE ED|EG GE|DG A>A|
Bd A B/A/|GE ED|EG GE|DG G2:|
|:Bd g>e|ed g>d|Bd e/f/g/e/|dBA>A
Bd g>e|ed g>d|dBA G/A/|BG G2:|

